third_party/noto/noto_2/emoji_u1f6f8.svg

<svg enable-background="new 0 0 128 128" version="1.1" viewBox="0 0 128 128" xmlns="http://www.w3.org/2000/svg"><path d="m106.13 42.46c-0.07 1.32 0.89 2.47 2.24 2.43 1.2-0.04 1.99-1.41 1.95-2.3s-1.08-1.97-2.14-2.03c-1.05-0.08-2 1.1-2.05 1.9z" fill="#fff" opacity=".5"/><path d="m35.17 4.46c-0.84 0.93-0.57 2.31 0.21 2.82s1.95 0.46 2.52-0.24c0.51-0.63 0.57-1.89-0.21-2.67-0.67-0.68-1.98-0.51-2.52 0.09z" fill="#fff" opacity=".5"/><path d="m113.6 95.23s1.15-3.3 1.84-3.34 1.69 3.3 1.69 3.3 3.42 0.04 3.65 0.54c0.3 0.64-2.19 2.8-2.19 2.8s0.81 3.23 0.42 3.61c-0.42 0.42-3.38-1.27-3.38-1.27s-3.03 2.11-3.69 1.54c-0.57-0.5 0.61-3.92 0.61-3.92s-2.84-2.07-2.69-2.65c0.23-0.8 3.74-0.61 3.74-0.61z" fill="#fff"/><path d="m115.95 36.58c-0.17 2 1.26 3.7 3.31 3.58 1.83-0.11 3.28-1.65 3.07-3.56-0.23-2.06-1.57-2.93-3.18-2.99s-3.1 1.76-3.2 2.97z" fill="#fff"/><path d="m25.23 16.26c-0.23 1.76 0.92 3.21 2.75 3.21 1.67 0 2.98-1.6 2.87-3.27-0.12-1.8-1.4-2.73-2.93-2.6-1.42 0.12-2.56 1.6-2.69 2.66z" fill="#fff"/><path d="m81.04 109.17c-0.16 1.87 1.17 3.45 3.09 3.34 1.7-0.1 3.06-1.54 2.86-3.32-0.21-1.93-1.46-2.74-2.96-2.79s-2.89 1.64-2.99 2.77z" fill="#fff" opacity=".5"/><radialGradient id="g" cx="50.021" cy="75.73" r="49.077" gradientUnits="userSpaceOnUse"><stop stop-color="#4CF9FF" stop-opacity=".7" offset=".1706"/><stop stop-color="#4CF9FF" stop-opacity="0" offset="1"/></radialGradient><polygon points="36.85 74.12 15.99 113.18 32.41 126.94 60.82 126.94 70.58 84.77" fill="url(#g)"/><path d="m19.36 66.25c-1.09-1.25-6.72-10.63-9.53-17.66s-5.62-16.72-5.62-16.72l45.16 5 74.07 41.56s-7.5 4.53-17.5 9.06-15 5.63-16.09 5.94-15.03 0.8-38.28-8.28c-22.83-8.9-32.21-18.9-32.21-18.9z" fill="#848484"/><path d="m16.3 30.12-9.79-0.92s-1.29 0-2.03 0.83-0.28 1.85-0.28 1.85 20 18.21 55.94 32.51c38.69 15.39 63.29 14.06 63.29 14.06s1.08-0.54 1.08-1.63-0.87-1.83-0.87-1.83l-60.91-28.28-46.43-16.59z" fill="#9A9A9A"/><path d="m72.02 30.05c-15.98-6.85-27.35-5.47-32.35-5.31s-33.15 4.46-33.15 4.46 23.47 19.76 55.81 31.95 61.31 13.83 61.31 13.83-12.56-15.86-20.21-23.83c-10.28-10.7-17.19-15.01-31.41-21.1z" fill="#B0B0B0"/><path d="m31.86 27.89c-1.43-0.83-13.07 1.27-13.07 5.05 0 2.81 6.09 6.17 12.03 9.3 5.21 2.75 14.11 6.49 14.51 4.09 0.47-2.81-9.38-5.45-12.43-10.58-2.24-3.77 0.88-6.73-1.04-7.86z" fill="#E3E3DF"/><path d="m103.38 54.91c-1.89 0.09-2.08 3.37-6.82 4.81s-14.86-1.22-16.11 0.25c-2.41 2.81 24.94 12.19 30.39 7.86 4.05-3.22-5.7-13-7.46-12.92z" fill="#9A9A9A"/><path d="m44.81 23.22s-1.48 2.48-1.2 4.25c0.46 2.95 6 8.77 23.63 15.42 18.26 6.88 27.79 5.26 28.99 3.6 0.87-1.21 0.83-3.88 0.83-3.88l-27.24-12.56-25.01-6.83z" fill="#4B7179"/><path d="m44.81 23.22s12.3-21.77 36.06-12.95c21.52 7.99 16.19 32.34 16.19 32.34s-28.32-6.52-29.87-7.46c-1.56-0.93-22.38-11.93-22.38-11.93z" fill="#64DAC1"/><path d="m68.72 38.73c-22.39-8.74-23.91-15.51-23.91-15.51s8.76-1.64 27.79 5.45c20.3 7.57 24.46 13.93 24.46 13.93s-9.42 3.51-28.34-3.87z" fill="#53B4A0"/><path d="m70.84 29.03s1.44-3.29 1.11-4.8c-0.55-2.49-2.14-4.91-1.11-7.29 1.48-3.42 4.57-4.3 8.59-2.77 3.88 1.48 4.7 5.17 3.6 7.57-1.48 3.23-3.78 2.77-5.45 4.25-1.42 1.26-2.49 4.71-2.49 4.71l-4.25-1.67z" fill="#53B4A0"/><path d="m51.23 27.74c2.41 0.97 4.2-3.92 8.89-8.44 5.57-5.37 13.66-7.13 13.11-8.7-0.63-1.86-10.74-0.97-17.33 4.72-6.23 5.39-7.35 11.33-4.67 12.42z" fill="#9CFCEC"/><path d="m87.76 39.95c-0.13 1.92 3.65 2.62 5.69 1.02 2.73-2.13 2.5-7.02 0.45-7.23-1.92-0.19-1.66 2.43-2.94 3.58s-3.1 1.2-3.2 2.63z" fill="#9CFCEC"/><radialGradient id="f" cx="33.976" cy="66.889" r="9.8817" gradientUnits="userSpaceOnUse"><stop stop-color="#53B4A0" offset="0"/><stop stop-color="#53B4A0" stop-opacity="0" offset="1"/></radialGradient><ellipse cx="33.98" cy="66.89" rx="9.78" ry="9.99" fill="url(#f)"/><radialGradient id="e" cx="54.899" cy="77.63" r="10.812" gradientTransform="matrix(1 0 0 .9422 0 4.4905)" gradientUnits="userSpaceOnUse"><stop stop-color="#53B4A0" offset="0"/><stop stop-color="#53B4A0" stop-opacity="0" offset="1"/></radialGradient><ellipse cx="54.9" cy="77.63" rx="11.02" ry="10.6" fill="url(#e)"/><radialGradient id="d" cx="76.289" cy="83.281" r="9.8817" gradientTransform="matrix(.9468 0 0 .9216 3.5087 7.294)" gradientUnits="userSpaceOnUse"><stop stop-color="#53B4A0" offset="0"/><stop stop-color="#53B4A0" stop-opacity="0" offset="1"/></radialGradient><ellipse cx="75.74" cy="84.05" rx="9.26" ry="9.2" fill="url(#d)"/><radialGradient id="c" cx="96.075" cy="85.196" r="8.9713" gradientTransform="matrix(.9598 -.2807 .2642 .9033 -18.682 35.091)" gradientUnits="userSpaceOnUse"><stop stop-color="#53B4A0" offset="0"/><stop stop-color="#53B4A0" stop-opacity="0" offset="1"/></radialGradient><path d="m104.76 82.53c1.35 4.63-1.45 9.52-6.27 10.93s-9.82-1.2-11.17-5.83 1.45-9.52 6.27-10.93c4.81-1.41 9.81 1.2 11.17 5.83z" fill="url(#c)"/><radialGradient id="b" cx="20.301" cy="54.059" r="10.382" gradientUnits="userSpaceOnUse"><stop stop-color="#53B4A0" stop-opacity=".7" offset="0"/><stop stop-color="#53B4A0" stop-opacity="0" offset="1"/></radialGradient><ellipse cx="20.3" cy="54.06" rx="9.78" ry="9.99" fill="none" stroke="url(#b)" stroke-miterlimit="10"/><path d="m31.43 64.13c-1.76 1.86-1.72 4.82 0.47 6.44 2.12 1.57 4.48 0.63 5.57-0.71s1.26-4.24-0.47-5.73c-1.72-1.49-4.24-1.41-5.57 0z" fill="#53B4A0"/><path d="m32.76 65.94c-0.74 0.8-0.83 2 0.16 2.91 0.94 0.86 2.43 0.55 2.98-0.24 0.67-0.96 0.47-2.36-0.39-2.91s-1.88-0.71-2.75 0.24z" fill="#9CFCEC"/><path d="m50.2 76.69c-0.94 2.28 0.63 4.79 3.53 5.5 2.54 0.62 4.87-0.63 5.42-2.91 0.51-2.13-0.59-4.61-3.3-5.26-2.28-0.55-4.61 0.15-5.65 2.67z" fill="#53B4A0"/><path d="m53.18 76.58c-0.74 0.79-0.83 1.98 0.16 2.87 0.94 0.85 2.43 0.54 2.98-0.23 0.67-0.94 0.47-2.33-0.39-2.87-0.87-0.55-1.89-0.7-2.75 0.23z" fill="#9CFCEC"/><path d="m73.17 81.03c-1.82 1.6-1.82 4.46 0.06 6.3 1.64 1.6 4.02 1.49 5.54-0.27 1.42-1.65 1.76-4.29 0.01-6-1.48-1.44-3.59-1.8-5.61-0.03z" fill="#53B4A0"/><path d="m77.27 82.65c-0.76-0.78-1.92-0.91-2.83 0.07-0.87 0.94-0.61 2.49 0.13 3.08 0.91 0.72 2.28 0.56 2.84-0.32 0.57-0.86 0.75-1.91-0.14-2.83z" fill="#9CFCEC"/><path d="m97.34 80.83c-2.37-0.42-4.65 1.28-4.96 3.8-0.27 2.2 1.27 3.93 3.59 4.02 2.17 0.09 4.47-1.22 4.76-3.56 0.23-1.98-0.76-3.8-3.39-4.26z" fill="#53B4A0"/><path d="m94.49 84.65c-0.03 1.1 0.69 2.04 2.04 2.02 1.3-0.02 2.23-1.28 2.14-2.24-0.12-1.17-1.19-2.06-2.22-1.86s-1.92 0.79-1.96 2.08z" fill="#9CFCEC"/><radialGradient id="a" cx="19.846" cy="54.903" r="9.8817" gradientTransform="matrix(.5456 -.838 .838 .5456 -36.687 41.211)" gradientUnits="userSpaceOnUse"><stop stop-color="#53B4A0" offset="0"/><stop stop-color="#53B4A0" stop-opacity="0" offset="1"/></radialGradient><path d="m25.49 46.34c4.62 3.01 5.98 9.12 3.03 13.64s-9.08 5.75-13.7 2.74-5.98-9.12-3.03-13.64 9.07-5.75 13.7-2.74z" fill="url(#a)"/><path d="m18.79 50.62c-2.36 0.98-3.12 3.32-2.2 5.57 0.86 2.12 3.06 3.06 5.18 2.36s3.53-3.14 2.36-5.65c-1.15-2.45-3.46-3.06-5.34-2.28z" fill="#53B4A0"/><path d="m19.15 52.63c-0.99 0.64-1.2 1.98-0.49 3.04s2.19 0.99 2.97 0.35 0.99-2.12 0.21-3.04-1.89-0.87-2.69-0.35z" fill="#9CFCEC"/></svg>

<?xml version="1.0" encoding="utf-8"?>
<!-- Generator: Adobe Illustrator 25.2.3, SVG Export Plug-In . SVG Version: 6.00 Build 0)  -->
<svg version="1.1" id="Layer_2" xmlns="http://www.w3.org/2000/svg" xmlns:xlink="http://www.w3.org/1999/xlink" x="0px" y="0px"
	 viewBox="0 0 128 128" style="enable-background:new 0 0 128 128;" xml:space="preserve">
<path style="opacity:0.5;fill:#FFFFFF;" d="M106.13,42.46c-0.07,1.32,0.89,2.47,2.24,2.43c1.2-0.04,1.99-1.41,1.95-2.3
	s-1.08-1.97-2.14-2.03C107.13,40.48,106.18,41.66,106.13,42.46z"/>
<path style="opacity:0.5;fill:#FFFFFF;" d="M35.17,4.46c-0.84,0.93-0.57,2.31,0.21,2.82s1.95,0.46,2.52-0.24
	c0.51-0.63,0.57-1.89-0.21-2.67C37.02,3.69,35.71,3.86,35.17,4.46z"/>
<path style="fill:#FFFFFF;" d="M113.6,95.23c0,0,1.15-3.3,1.84-3.34c0.69-0.04,1.69,3.3,1.69,3.3s3.42,0.04,3.65,0.54
	c0.3,0.64-2.19,2.8-2.19,2.8s0.81,3.23,0.42,3.61c-0.42,0.42-3.38-1.27-3.38-1.27s-3.03,2.11-3.69,1.54
	c-0.57-0.5,0.61-3.92,0.61-3.92s-2.84-2.07-2.69-2.65C110.09,95.04,113.6,95.23,113.6,95.23z"/>
<path style="fill:#FFFFFF;" d="M115.95,36.58c-0.17,2,1.26,3.7,3.31,3.58c1.83-0.11,3.28-1.65,3.07-3.56
	c-0.23-2.06-1.57-2.93-3.18-2.99S116.05,35.37,115.95,36.58z"/>
<path style="fill:#FFFFFF;" d="M25.23,16.26c-0.23,1.76,0.92,3.21,2.75,3.21c1.67,0,2.98-1.6,2.87-3.27c-0.12-1.8-1.4-2.73-2.93-2.6
	C26.5,13.72,25.36,15.2,25.23,16.26z"/>
<path style="opacity:0.5;fill:#FFFFFF;" d="M81.04,109.17c-0.16,1.87,1.17,3.45,3.09,3.34c1.7-0.1,3.06-1.54,2.86-3.32
	c-0.21-1.93-1.46-2.74-2.96-2.79C82.53,106.35,81.14,108.04,81.04,109.17z"/>
<radialGradient id="SVGID_1_" cx="50.0214" cy="75.7303" r="49.0767" gradientUnits="userSpaceOnUse">
	<stop  offset="0.1706" style="stop-color:#4CF9FF;stop-opacity:0.7"/>
	<stop  offset="1" style="stop-color:#4CF9FF;stop-opacity:0"/>
</radialGradient>
<polygon style="fill:url(#SVGID_1_);" points="36.85,74.12 15.99,113.18 32.41,126.94 60.82,126.94 70.58,84.77 "/>
<path style="fill:#848484;" d="M19.36,66.25C18.27,65,12.64,55.62,9.83,48.59S4.21,31.87,4.21,31.87l45.16,5l74.07,41.56
	c0,0-7.5,4.53-17.5,9.06s-15,5.63-16.09,5.94c-1.09,0.31-15.03,0.8-38.28-8.28C28.74,76.25,19.36,66.25,19.36,66.25z"/>
<path style="fill:#9A9A9A;" d="M16.3,30.12l-9.79-0.92c0,0-1.29,0-2.03,0.83s-0.28,1.85-0.28,1.85s20,18.21,55.94,32.51
	c38.69,15.39,63.29,14.06,63.29,14.06s1.08-0.54,1.08-1.63c0-1.09-0.87-1.83-0.87-1.83L62.73,46.71L16.3,30.12z"/>
<path style="fill:#B0B0B0;" d="M72.02,30.05c-15.98-6.85-27.35-5.47-32.35-5.31c-5,0.16-33.15,4.46-33.15,4.46
	s23.47,19.76,55.81,31.95s61.31,13.83,61.31,13.83s-12.56-15.86-20.21-23.83C93.15,40.45,86.24,36.14,72.02,30.05z"/>
<path style="fill:#E3E3DF;" d="M31.86,27.89c-1.43-0.83-13.07,1.27-13.07,5.05c0,2.81,6.09,6.17,12.03,9.3
	c5.21,2.75,14.11,6.49,14.51,4.09c0.47-2.81-9.38-5.45-12.43-10.58C30.66,31.98,33.78,29.02,31.86,27.89z"/>
<path style="fill:#9A9A9A;" d="M103.38,54.91c-1.89,0.09-2.08,3.37-6.82,4.81S81.7,58.5,80.45,59.97
	c-2.41,2.81,24.94,12.19,30.39,7.86C114.89,64.61,105.14,54.83,103.38,54.91z"/>
<path style="fill:#4B7179;" d="M44.81,23.22c0,0-1.48,2.48-1.2,4.25c0.46,2.95,6,8.77,23.63,15.42c18.26,6.88,27.79,5.26,28.99,3.6
	c0.87-1.21,0.83-3.88,0.83-3.88L69.82,30.05L44.81,23.22z"/>
<path style="fill:#64DAC1;" d="M44.81,23.22c0,0,12.3-21.77,36.06-12.95c21.52,7.99,16.19,32.34,16.19,32.34s-28.32-6.52-29.87-7.46
	C65.63,34.22,44.81,23.22,44.81,23.22z"/>
<path style="fill:#53B4A0;" d="M68.72,38.73c-22.39-8.74-23.91-15.51-23.91-15.51s8.76-1.64,27.79,5.45
	C92.9,36.24,97.06,42.6,97.06,42.6S87.64,46.11,68.72,38.73z"/>
<path style="fill:#53B4A0;" d="M70.84,29.03c0,0,1.44-3.29,1.11-4.8c-0.55-2.49-2.14-4.91-1.11-7.29c1.48-3.42,4.57-4.3,8.59-2.77
	c3.88,1.48,4.7,5.17,3.6,7.57c-1.48,3.23-3.78,2.77-5.45,4.25c-1.42,1.26-2.49,4.71-2.49,4.71L70.84,29.03z"/>
<path style="fill:#9CFCEC;" d="M51.23,27.74c2.41,0.97,4.2-3.92,8.89-8.44c5.57-5.37,13.66-7.13,13.11-8.7
	C72.6,8.74,62.49,9.63,55.9,15.32C49.67,20.71,48.55,26.65,51.23,27.74z"/>
<path style="fill:#9CFCEC;" d="M87.76,39.95c-0.13,1.92,3.65,2.62,5.69,1.02c2.73-2.13,2.5-7.02,0.45-7.23
	c-1.92-0.19-1.66,2.43-2.94,3.58S87.86,38.52,87.76,39.95z"/>
<radialGradient id="SVGID_2_" cx="33.9765" cy="66.8888" r="9.8817" gradientUnits="userSpaceOnUse">
	<stop  offset="0" style="stop-color:#53B4A0"/>
	<stop  offset="1" style="stop-color:#53B4A0;stop-opacity:0"/>
</radialGradient>
<ellipse style="fill:url(#SVGID_2_);" cx="33.98" cy="66.89" rx="9.78" ry="9.99"/>
<radialGradient id="SVGID_3_" cx="54.8992" cy="77.6303" r="10.8117" gradientTransform="matrix(1 0 0 0.9422 0 4.4905)" gradientUnits="userSpaceOnUse">
	<stop  offset="0" style="stop-color:#53B4A0"/>
	<stop  offset="1" style="stop-color:#53B4A0;stop-opacity:0"/>
</radialGradient>
<ellipse style="fill:url(#SVGID_3_);" cx="54.9" cy="77.63" rx="11.02" ry="10.6"/>
<radialGradient id="SVGID_4_" cx="76.2886" cy="83.2814" r="9.8817" gradientTransform="matrix(0.9468 0 0 0.9216 3.5087 7.294)" gradientUnits="userSpaceOnUse">
	<stop  offset="0" style="stop-color:#53B4A0"/>
	<stop  offset="1" style="stop-color:#53B4A0;stop-opacity:0"/>
</radialGradient>
<ellipse style="fill:url(#SVGID_4_);" cx="75.74" cy="84.05" rx="9.26" ry="9.2"/>
<radialGradient id="SVGID_5_" cx="96.0752" cy="85.1959" r="8.9713" gradientTransform="matrix(0.9598 -0.2807 0.2642 0.9033 -18.6815 35.0906)" gradientUnits="userSpaceOnUse">
	<stop  offset="0" style="stop-color:#53B4A0"/>
	<stop  offset="1" style="stop-color:#53B4A0;stop-opacity:0"/>
</radialGradient>
<path style="fill:url(#SVGID_5_);" d="M104.76,82.53c1.35,4.63-1.45,9.52-6.27,10.93s-9.82-1.2-11.17-5.83
	c-1.35-4.63,1.45-9.52,6.27-10.93C98.4,75.29,103.4,77.9,104.76,82.53z"/>
<radialGradient id="SVGID_6_" cx="20.3014" cy="54.0586" r="10.3817" gradientUnits="userSpaceOnUse">
	<stop  offset="0" style="stop-color:#53B4A0;stop-opacity:0.7"/>
	<stop  offset="1" style="stop-color:#53B4A0;stop-opacity:0"/>
</radialGradient>
<ellipse style="fill:none;stroke:url(#SVGID_6_);stroke-miterlimit:10;" cx="20.3" cy="54.06" rx="9.78" ry="9.99"/>
<path style="fill:#53B4A0;" d="M31.43,64.13c-1.76,1.86-1.72,4.82,0.47,6.44c2.12,1.57,4.48,0.63,5.57-0.71s1.26-4.24-0.47-5.73
	C35.28,62.64,32.76,62.72,31.43,64.13z"/>
<path style="fill:#9CFCEC;" d="M32.76,65.94c-0.74,0.8-0.83,2,0.16,2.91c0.94,0.86,2.43,0.55,2.98-0.24
	c0.67-0.96,0.47-2.36-0.39-2.91C34.65,65.15,33.63,64.99,32.76,65.94z"/>
<path style="fill:#53B4A0;" d="M50.2,76.69c-0.94,2.28,0.63,4.79,3.53,5.5c2.54,0.62,4.87-0.63,5.42-2.91
	c0.51-2.13-0.59-4.61-3.3-5.26C53.57,73.47,51.24,74.17,50.2,76.69z"/>
<path style="fill:#9CFCEC;" d="M53.18,76.58c-0.74,0.79-0.83,1.98,0.16,2.87c0.94,0.85,2.43,0.54,2.98-0.23
	c0.67-0.94,0.47-2.33-0.39-2.87C55.06,75.8,54.04,75.65,53.18,76.58z"/>
<path style="fill:#53B4A0;" d="M73.17,81.03c-1.82,1.6-1.82,4.46,0.06,6.3c1.64,1.6,4.02,1.49,5.54-0.27c1.42-1.65,1.76-4.29,0.01-6
	C77.3,79.62,75.19,79.26,73.17,81.03z"/>
<path style="fill:#9CFCEC;" d="M77.27,82.65c-0.76-0.78-1.92-0.91-2.83,0.07c-0.87,0.94-0.61,2.49,0.13,3.08
	c0.91,0.72,2.28,0.56,2.84-0.32C77.98,84.62,78.16,83.57,77.27,82.65z"/>
<path style="fill:#53B4A0;" d="M97.34,80.83c-2.37-0.42-4.65,1.28-4.96,3.8c-0.27,2.2,1.27,3.93,3.59,4.02
	c2.17,0.09,4.47-1.22,4.76-3.56C100.96,83.11,99.97,81.29,97.34,80.83z"/>
<path style="fill:#9CFCEC;" d="M94.49,84.65c-0.03,1.1,0.69,2.04,2.04,2.02c1.3-0.02,2.23-1.28,2.14-2.24
	c-0.12-1.17-1.19-2.06-2.22-1.86S94.53,83.36,94.49,84.65z"/>
<radialGradient id="SVGID_7_" cx="19.8458" cy="54.9031" r="9.8817" gradientTransform="matrix(0.5456 -0.838 0.838 0.5456 -36.6866 41.2109)" gradientUnits="userSpaceOnUse">
	<stop  offset="0" style="stop-color:#53B4A0"/>
	<stop  offset="1" style="stop-color:#53B4A0;stop-opacity:0"/>
</radialGradient>
<path style="fill:url(#SVGID_7_);" d="M25.49,46.34c4.62,3.01,5.98,9.12,3.03,13.64s-9.08,5.75-13.7,2.74
	c-4.62-3.01-5.98-9.12-3.03-13.64S20.86,43.33,25.49,46.34z"/>
<path style="fill:#53B4A0;" d="M18.79,50.62c-2.36,0.98-3.12,3.32-2.2,5.57c0.86,2.12,3.06,3.06,5.18,2.36s3.53-3.14,2.36-5.65
	C22.98,50.45,20.67,49.84,18.79,50.62z"/>
<path style="fill:#9CFCEC;" d="M19.15,52.63c-0.99,0.64-1.2,1.98-0.49,3.04c0.71,1.06,2.19,0.99,2.97,0.35
	c0.78-0.64,0.99-2.12,0.21-3.04C21.06,52.06,19.95,52.11,19.15,52.63z"/>
</svg>
